assets/icons/play_question.svg

<svg width="25" height="25" viewBox="0 0 25 25" fill="none" xmlns="http://www.w3.org/2000/svg">
<g id="play_question">
<path id="iconDefault" fill-rule="evenodd" clip-rule="evenodd" d="M6.54455 2.60245C6.35876 2.49794 6.13148 2.49985 5.94748 2.60746C5.76348 2.71508 5.65039 2.91223 5.65039 3.12539V21.8754C5.65039 22.0885 5.76348 22.2857 5.94748 22.3933C6.13148 22.5009 6.35876 22.5028 6.54455 22.3983L11.1751 19.7937C11.4639 19.6312 11.5663 19.2654 11.4039 18.9766C11.2414 18.6877 10.8756 18.5853 10.5868 18.7478L6.85039 20.8495V4.1513L22.6229 13.0233C22.9117 13.1858 23.2775 13.0834 23.44 12.7945C23.6025 12.5057 23.5 12.1399 23.2112 11.9774L6.54455 2.60245ZM13.1 17.7083C13.1 15.1632 15.1632 13.1 17.7083 13.1C20.2534 13.1 22.3167 15.1632 22.3167 17.7083C22.3167 20.2534 20.2534 22.3167 17.7083 22.3167C15.1632 22.3167 13.1 20.2534 13.1 17.7083ZM17.7083 11.9C14.5005 11.9 11.9 14.5005 11.9 17.7083C11.9 20.9162 14.5005 23.5167 17.7083 23.5167C20.9162 23.5167 23.5167 20.9162 23.5167 17.7083C23.5167 14.5005 20.9162 11.9 17.7083 11.9ZM16.8879 16.7614C16.8879 16.3082 17.2552 15.9409 17.7083 15.9409C18.1614 15.9409 18.5288 16.3082 18.5288 16.7614C18.5288 17.2145 18.1614 17.5818 17.7083 17.5818C17.3769 17.5818 17.1083 17.8504 17.1083 18.1818V19.1288C17.1083 19.4601 17.3769 19.7288 17.7083 19.7288C18.0397 19.7288 18.3083 19.4601 18.3083 19.1288V18.6912C19.1312 18.4357 19.7288 17.6683 19.7288 16.7614C19.7288 15.6455 18.8242 14.7409 17.7083 14.7409C16.5925 14.7409 15.6879 15.6455 15.6879 16.7614C15.6879 17.0927 15.9565 17.3614 16.2879 17.3614C16.6192 17.3614 16.8879 17.0927 16.8879 16.7614ZM18.3083 21.0227C18.3083 20.6913 18.0397 20.4227 17.7083 20.4227C17.3769 20.4227 17.1083 20.6913 17.1083 21.0227V21.1174C17.1083 21.4488 17.3769 21.7174 17.7083 21.7174C18.0397 21.7174 18.3083 21.4488 18.3083 21.1174V21.0227Z" fill="#18303F" style="fill:#18303F"/>
</g>
</svg>

<svg width="25" height="25" viewBox="0 0 25 25" fill="none"><path fill-rule="evenodd" clip-rule="evenodd" d="M6.545 2.602a.6.6 0 0 0-.895.523v18.75a.6.6 0 0 0 .895.523l4.63-2.604a.6.6 0 0 0-.588-1.046L6.85 20.849V4.151l15.773 8.872a.6.6 0 1 0 .588-1.046L6.545 2.602ZM13.1 17.708a4.608 4.608 0 1 1 9.217 0 4.608 4.608 0 0 1-9.217 0Zm4.608-5.808a5.808 5.808 0 1 0 0 11.617 5.808 5.808 0 0 0 0-11.617Zm-.82 4.861a.82.82 0 1 1 .82.82.6.6 0 0 0-.6.6v.948a.6.6 0 0 0 1.2 0v-.438a2.021 2.021 0 1 0-2.62-1.93.6.6 0 0 0 1.2 0Zm1.42 4.262a.6.6 0 1 0-1.2 0v.094a.6.6 0 1 0 1.2 0v-.094Z" fill="#18303F" yggColor="play_question"/></svg>
